X: 18714
T: Iain's
R: jig
M: 6/8
K: Bminor
|:fBB ~a2e|fBB ~d2e|fBB Baf|ecA Ace|
fBB ~a2e|fBB ~d2e|f>Bf faf|ecA Ace:|
|:fBB cBc|fBB ~d2e|fBB cBc|ecA Ace|
fBB cBc|fBB ~d2e|f>Bf faf|ecA Ace:|
|:fBB aBB|fBB dBB|fBB aBB|ecA Ace|
fBB aBB|fBB ~d2e|fBf faf|ecA Ace:|
|:Bff dff|Bff Aff|Bfd ced|cAA Ace|
Bff dff|Bff Aff|f>Bf faf|ecA Ace:|
|:daa caa|Baa Aaa|AaB aca|dae afa|
faa eaa|daa caa|f>Bf faf|ecA Ace:|

